X:1
T:Earl’s Court, CMD
T:Earl’s Court, CMD
T:Charles Edward Pollock, 1883
T:Public Domain Courtesy of the Cyber Hymnal™
C:Charles Edward Pollock, 1883
Z:Public Domain
Z:Courtesy of the Cyber Hymnal™
%%score ( 1 2 ) ( 3 4 )
L:1/8
Q:1/4=110
M:4/4
K:Eb
V:1 treble 
V:2 treble 
V:3 bass 
V:4 bass 
V:1
 (EF) | [EG]3 [EG] [EG]2 [FA]2 | [GB]3 [GB] [GB]2 [EG]2 | [DF]3 [C=E] [DF]2 [FA]2 | [EG]6 (EF) | %5
 [EG]3 [EG] [EG]2 [FA]2 | [GB]3 [GB] [GB]2 [EG]2 | [DF]3 [EG] [FA]2 [B,D]2 | [B,E]6 [GB]2 | %9
 [Ac]3 [Ac] [Ac]2 [Ae]2 | [GB]3 [GB] [GB]2 [EG]2 | ([DF]3 [EG] [FA])[Ac][GB][FA] | [EG]6 [GB]2 | %13
 [Ac]3 [Ac] [Ac]2 [Ae]2 | [GB]3 [GB] [GB]2 [EG]2 | [DF]3 [EG] [FA]2 [B,D]2 | [B,E]6 |] %17
V:2
 E2 | x8 | x8 | x8 | x6 E2 | x8 | x8 | x8 | x8 | x8 | x8 | x8 | x8 | x8 | x8 | x8 | x6 |] %17
V:3
 (G,A,) | [E,B,]3 [E,B,] [E,B,]2 [E,B,]2 | [E,E]3 [E,E] [E,E]2 [E,B,]2 | %3
 [B,,B,]3 [B,,B,] [B,,B,]2 [B,,B,]2 | [E,B,]6 (G,A,) | [E,B,]3 [E,B,] [E,B,]2 [E,B,]2 | %6
 [E,E]3 [E,E] [E,E]2 [E,B,]2 | [B,,B,]3 [B,,B,] [B,,B,]2 [B,,A,]2 | [E,G,]6 [E,E]2 | %9
 [A,E]3 [A,E] [A,E]2 [A,E]2 | [E,E]3 [E,E] [E,E]2 [E,B,]2 | %11
 [B,,B,]4- [B,,B,][B,,B,][B,,B,][B,,B,] | [E,B,]6 [E,E]2 | [A,E]3 [A,E] [A,E]2 [A,E]2 | %14
 [E,E]3 [E,E] [E,E]2 [E,B,]2 | [B,,B,]3 [B,,B,] [B,,B,]2 [B,,B,]2 | [E,G,]6 |] %17
V:4
 E,2 | x8 | x8 | x8 | x6 E,2 | x8 | x8 | x8 | x8 | x8 | x8 | x8 | x8 | x8 | x8 | x8 | x6 |] %17

